X:1
T:Title
%%score { ( 1 4 ) | ( 2 3 ) }
L:1/8
Q:1/4=106
M:4/4
K:Eb
V:1 treble nm="Grand Piano"
V:4 treble 
V:2 bass 
V:3 bass 
V:1
 [B,E]3 [B,F] [EG]3 [FA] | [GB][G=A][GB][_Ac] [GB]2 G2 | AGAB A2 F2 | z4 [GB]4 | %4
w: ????~????~????? * * *||||
 [B,E]3 [B,F] [EG]3 [FA] | [GB][G=A][GB][_Ac] [GB]2 G2 | AGAB [D,Dc]2 [A,B,D]2 | [B,E]4- [B,E]EDE | %8
w: ||||
 [DF]3 D B,3 c | [GB]3 A GEDE | [DF]2 [B,D]2 [A,B,]2 [Ac]2 | [EB]2 A2 G2 F2 | %12
w: ||||
 [B,E]3 [B,F] [EG]3 [FA] | [GB][G=A][GB][_Ac] [GB]2 [EG]2 | %14
w: ||
 [FA][FG][FA][FB] [Dc]2[K:bass] [F,A,B,D]2 | [B,E]8 |] %16
w: ||
V:2
 [E,,E,]4 [E,B,]4 | [E,,E,]2 [G,B,]2 [E,,E,]2 [G,B,E]2 | %2
 F[K:treble]FFF[K:bass] [B,,,D,F]2 [F,A,B,D]2 | [E,,E,]2 [G,B,]2 [E,,E,]2 z2 | [E,,E,]4 [G,B,]4 | %5
 [E,,E,]2 [G,B,]2 [E,,E,]2 [G,B,E]2 | F[K:treble]FFF[K:bass] B,,,2 F,2 | E,2 B,,G,, E,,4 | z4 A,4 | %9
 [E,,E,]4 .[E,B,E]2 z2 | [B,,,B,,]4 [D,F,]4 | [E,,E,]2 A,2 G,2 F,2 | [E,,E,]4 [G,B,]4 | %13
 [E,,E,]2 [G,B,]2 [E,,E,]2 [G,B,]2 | [B,,,B,,]2 [F,A,B,]2 [B,,,B,,]2 D,2 | E,2 B,,2 E,,4 |] %16
V:3
 x8 | x8 | [B,,,D,]2[K:treble] [F,A,B,]2[K:bass] z4 | x8 | x8 | x8 | %6
 [B,,,D,]2[K:treble] [F,A,B,]2[K:bass] z4 | x8 | [B,,,B,,]4 [D,F,]3- [D,F,A] | x8 | x8 | x8 | x8 | %13
 x8 | x8 | x8 |] %16
V:4
 x8 | x8 | x8 | [GB][G=A][GB][_Ac] z2 [G,B,]2 | x8 | x8 | x8 | x8 | x8 | x8 | x8 | x8 | x8 | x8 | %14
 x6[K:bass] x2 | x8 |] %16

